build/svg/cmd/32/animationobjects.svg

<?xml version="1.0" encoding="UTF-8" standalone="no"?>
<svg
   xmlns:dc="http://purl.org/dc/elements/1.1/"
   xmlns:cc="http://creativecommons.org/ns#"
   xmlns:rdf="http://www.w3.org/1999/02/22-rdf-syntax-ns#"
   xmlns:svg="http://www.w3.org/2000/svg"
   xmlns="http://www.w3.org/2000/svg"
   xmlns:sodipodi="http://sodipodi.sourceforge.net/DTD/sodipodi-0.dtd"
   xmlns:inkscape="http://www.inkscape.org/namespaces/inkscape"
   viewBox="0 0 32 32"
   version="1.1"
   id="svg4"
   sodipodi:docname="animationobjects.svg"
   inkscape:version="0.92.5 (2060ec1f9f, 2020-04-08)"
   inkscape:export-filename="/home/jupiter007/Libreoffice yaru theme fullcolor/build/cmd/32/animationobjects.png"
   inkscape:export-xdpi="95"
   inkscape:export-ydpi="95">
  <metadata
     id="metadata10">
    <rdf:RDF>
      <cc:Work
         rdf:about="">
        <dc:format>image/svg+xml</dc:format>
        <dc:type
           rdf:resource="http://purl.org/dc/dcmitype/StillImage" />
      </cc:Work>
    </rdf:RDF>
  </metadata>
  <defs
     id="defs8" />
  <sodipodi:namedview
     pagecolor="#ffffff"
     bordercolor="#666666"
     borderopacity="1"
     objecttolerance="10"
     gridtolerance="10"
     guidetolerance="10"
     inkscape:pageopacity="0"
     inkscape:pageshadow="2"
     inkscape:window-width="1920"
     inkscape:window-height="1011"
     id="namedview6"
     showgrid="true"
     inkscape:zoom="41.7193"
     inkscape:cx="19.46127"
     inkscape:cy="20.273225"
     inkscape:window-x="1920"
     inkscape:window-y="32"
     inkscape:window-maximized="1"
     inkscape:current-layer="svg4">
    <inkscape:grid
       type="xygrid"
       id="grid825" />
  </sodipodi:namedview>
  <g
     style="color:#000000"
     transform="matrix(1.6,0,0,1.6153846,-503.29999,-252.38464)"
     id="g4" />
  <path
     inkscape:connector-curvature="0"
     d="m 9.500031,5.49997 h 13 v 20 h -13 z"
     id="path42"
     style="fill:#b549b5;fill-opacity:1" />
  <path
     inkscape:connector-curvature="0"
     style="opacity:0.7"
     d="M 5.5,4 C 5.223869,4.000028 5.000028,4.223869 5,4.5 v 22 c 2.8e-5,0.27613 0.223869,0.499971 0.5,0.5 H 8 24 26.5 c 0.276131,-2.9e-5 0.499972,-0.22387 0.5,-0.5 V 4.5 C 26.999972,4.223869 26.776131,4.000028 26.5,4 H 24 8 Z M 7,5.999999 H 9 V 7 H 7 Z m 3,0 H 22 V 25 H 10 Z m 13,0 h 2 V 7 H 23 Z M 7,9 H 9 V 9.9999995 H 7 Z m 16,0 h 2 V 9.9999995 H 23 Z M 7,12 h 2 v 1 H 7 Z m 16,0 h 2 v 1 H 23 Z M 7,15 h 2 v 1 H 7 Z m 16,0 h 2 v 1 H 23 Z M 7,18 h 2 v 1 H 7 Z m 16,0 h 2 v 1 H 23 Z M 7,21 h 2 v 1 H 7 Z m 16,0 h 2 v 1 H 23 Z M 7,24 h 2 v 1 H 7 Z m 16,0 h 2 v 1 h -2 z"
     id="path50"
     sodipodi:nodetypes="cccccccccccccccccccccccccccccccccccccccccccccccccccccccccccccccccccccccccccccccccccccccc" />
  <path
     inkscape:connector-curvature="0"
     d="m 23,24 h 2 v 1 h -2 z m 0,-3 h 2 v 1 h -2 z m 0,-3 h 2 v 1 H 23 Z M 7,24 h 2 v 1 H 7 Z m 0,-3 h 2 v 1 H 7 Z m 0,-3 h 2 v 1 H 7 Z m 0,-3 h 2 v 1 H 7 Z m 0,-3 h 2 v 1 H 7 Z M 7,9 H 9 V 9.9999995 H 7 Z M 7,5.999999 H 9 V 7 H 7 Z"
     id="path60"
     style="opacity:1;fill:#ffffff" />
  <path
     id="path52"
     display="block"
     d="M 10.500011,15.499969 H 21.49953"
     inkscape:connector-curvature="0"
     style="display:block;opacity:0.7;fill:none;stroke:#000000;stroke-linecap:square;stroke-linejoin:round" />
  <rect
     style="opacity:1;fill:#ffffff;fill-opacity:1;fill-rule:evenodd;stroke:none;stroke-width:2;stroke-linecap:butt;stroke-linejoin:round;stroke-miterlimit:4;stroke-dasharray:none;stroke-opacity:1"
     id="rect817"
     width="2"
     height="1"
     x="23"
     y="15" />
  <rect
     y="12"
     x="23"
     height="1"
     width="2"
     id="rect819"
     style="opacity:1;fill:#ffffff;fill-opacity:1;fill-rule:evenodd;stroke:none;stroke-width:2;stroke-linecap:butt;stroke-linejoin:round;stroke-miterlimit:4;stroke-dasharray:none;stroke-opacity:1" />
  <rect
     style="opacity:1;fill:#ffffff;fill-opacity:1;fill-rule:evenodd;stroke:none;stroke-width:2;stroke-linecap:butt;stroke-linejoin:round;stroke-miterlimit:4;stroke-dasharray:none;stroke-opacity:1"
     id="rect821"
     width="2"
     height="1"
     x="23"
     y="9" />
  <rect
     y="6"
     x="23"
     height="1"
     width="2"
     id="rect823"
     style="opacity:1;fill:#ffffff;fill-opacity:1;fill-rule:evenodd;stroke:none;stroke-width:2;stroke-linecap:butt;stroke-linejoin:round;stroke-miterlimit:4;stroke-dasharray:none;stroke-opacity:1" />
</svg>

<svg xmlns="http://www.w3.org/2000/svg" viewBox="0 0 32 32"><path d="M9.5 5.5h13v20h-13z" fill="#b549b5"/><path d="M5.5 4a.5.5 0 00-.5.5v22a.5.5 0 00.5.5h21a.5.5 0 00.5-.5v-22a.5.5 0 00-.5-.5H8zM7 6h2v1H7zm3 0h12v19H10zm13 0h2v1h-2zM7 9h2v1H7zm16 0h2v1h-2zM7 12h2v1H7zm16 0h2v1h-2zM7 15h2v1H7zm16 0h2v1h-2zM7 18h2v1H7zm16 0h2v1h-2zM7 21h2v1H7zm16 0h2v1h-2zM7 24h2v1H7zm16 0h2v1h-2z" opacity=".7"/><path d="M23 24h2v1h-2zm0-3h2v1h-2zm0-3h2v1h-2zM7 24h2v1H7zm0-3h2v1H7zm0-3h2v1H7zm0-3h2v1H7zm0-3h2v1H7zm0-3h2v1H7zm0-3h2v1H7z" fill="#fff"/><path display="block" d="M10.5 15.5h11" opacity=".7" fill="none" stroke="#000" stroke-linecap="square" stroke-linejoin="round"/><path fill="#fff" fill-rule="evenodd" d="M23 15h2v1h-2zM23 12h2v1h-2zM23 9h2v1h-2zM23 6h2v1h-2z"/></svg>
